resources/icons/webpack.svg

<?xml version="1.0" encoding="UTF-8" standalone="no"?>
<svg
   xmlns:dc="http://purl.org/dc/elements/1.1/"
   xmlns:cc="http://creativecommons.org/ns#"
   xmlns:rdf="http://www.w3.org/1999/02/22-rdf-syntax-ns#"
   xmlns:svg="http://www.w3.org/2000/svg"
   xmlns="http://www.w3.org/2000/svg"
   xmlns:sodipodi="http://sodipodi.sourceforge.net/DTD/sodipodi-0.dtd"
   xmlns:inkscape="http://www.inkscape.org/namespaces/inkscape"
   width="16"
   height="16"
   viewBox="0 0 16 16"
   version="1.1"
   id="svg8"
   sodipodi:docname="webpack.svg"
   inkscape:version="0.92.4 (5da689c313, 2019-01-14)">
  <metadata
     id="metadata14">
    <rdf:RDF>
      <cc:Work
         rdf:about="">
        <dc:format>image/svg+xml</dc:format>
        <dc:type
           rdf:resource="http://purl.org/dc/dcmitype/StillImage" />
      </cc:Work>
    </rdf:RDF>
  </metadata>
  <defs
     id="defs12" />
  <sodipodi:namedview
     pagecolor="#ffffff"
     bordercolor="#666666"
     borderopacity="1"
     objecttolerance="10"
     gridtolerance="10"
     guidetolerance="10"
     inkscape:pageopacity="0"
     inkscape:pageshadow="2"
     inkscape:window-width="1920"
     inkscape:window-height="1001"
     id="namedview10"
     showgrid="false"
     inkscape:zoom="13.36"
     inkscape:cx="-4.5"
     inkscape:cy="8.2711864"
     inkscape:window-x="-9"
     inkscape:window-y="-9"
     inkscape:window-maximized="1"
     inkscape:current-layer="svg8" />
  <!--path
     d="M 8.01574,-0.10107415 16.115004,3.9605183 V 12.086413 L 8.01574,16.148005 -0.0835242,12.086413 V 3.9605183 Z"
     id="path2"
     inkscape:connector-curvature="0"
     style="fill:#ffffff;stroke-width:0.02877711" /-->
  <path
     d="M 14.17765,11.602107 8.2639551,14.63575 v -2.359215 l 3.6857969,-1.838649 z m 0.404814,-0.330803 V 4.9321978 L 12.419678,6.0630822 V 10.14042 Z M 1.8293797,11.602107 7.7430744,14.633185 V 12.27397 L 4.057277,10.437886 Z M 1.4245649,11.271304 V 4.9321978 L 3.5873522,6.0630822 V 10.14042 Z M 1.6765127,4.5218999 7.7430744,1.4138914 V 3.6961748 L 3.8562852,5.632269 3.8251452,5.647655 Z m 12.6511723,0 -6.0637299,-3.1080085 v 2.2822834 l 3.8839589,1.9386591 0.03114,0.015386 z"
     id="path4"
     inkscape:connector-curvature="0"
     style="fill:#8ed6fb;stroke-width:0.02694325" />
  <path
     d="M 7.7430744,11.738018 4.1082328,9.9250133 V 6.3374688 l 3.6348416,1.9001933 z m 0.5208807,0 3.6348409,-1.8104403 V 6.3374688 L 8.2639551,8.2376621 Z M 8.0035145,8.1017511 Z M 4.3516878,5.9220425 8.0035145,4.1039085 11.652511,5.9220425 8.0035145,7.8299288 Z"
     id="path6"
     inkscape:connector-curvature="0"
     style="fill:#1c78c0;stroke-width:0.02694325" />
</svg>

<svg xmlns="http://www.w3.org/2000/svg" width="16" height="16" viewBox="0 0 16 16"><path d="M14.178 11.602l-5.914 3.034v-2.36l3.686-1.838zm.404-.33v-6.34L12.42 6.063v4.077zm-12.753.33l5.914 3.031v-2.359l-3.686-1.836zm-.404-.33v-6.34l2.162 1.131v4.077zm.252-6.75l6.066-3.108v2.282L3.856 5.632l-.03.016zm12.65 0L8.265 1.414v2.282l3.884 1.939.031.015z" fill="#8ed6fb" stroke-width=".027"/><path d="M7.743 11.738L4.108 9.925V6.337l3.635 1.9zm.521 0l3.635-1.81v-3.59l-3.635 1.9zm-.26-3.636zm-3.652-2.18l3.652-1.818 3.649 1.818-3.65 1.908z" fill="#1c78c0" stroke-width=".027"/></svg>
